!!!!SEGMENT: pl-kk--kk-i-382--095-002_richling--msza-na-3-glosy-dies-irae.krn
!!!cenid: 18xx:1614
!!!COM: Richling
!!!COM-rismid: pe50045950
!!!CDT:
!!!CNT:
!!!OPR: Msza na 3 głosy
!!!OTL: Dies irae
!!!OMV: 002
!!!PDT:
!!!AGN: Sacred; Mass
!!!SMS-siglum: PL-Kk
!!!SMS-shelfmark: Kk.I.382
!!!SMS-shelfwork: 095-002 M
!!!SMS-variant:
!!!SMS-altvar:
!!!NIFC-rismid: 1001142973
!!!URL-scan: http://repozytorium.nifc.pl/skany/pl-kk-nut--i-382
!!!ONB-nifc: S/T1 od 0065, A/B1 od 0208, B2 od 0282. Części Mszy: 1. Requiem, 2. Dies irae, 3. Offertorium, 4. Sanctus, 5. Benedictus, 6. Agnus, 7. Graduale, 8. Offertorium
!!!AIN: 1 alto 1 bass 1 tenor
!!!key:
**kern	**text	**kern	**text	**kern	**text	**text
*part3	*part3	*part2	*part2	*part1	*part1	*part1
*staff3	*staff3	*staff2	*staff2	*staff1	*staff1	*staff1
*Ibass	*	*Ialto	*	*Itenor	*	*
*I"Basso II	*	*I"Alto. vel Basso I	*	*I"Soprano vel Tenore I.	*	*
*I'B 2	*	*I'A/B 1	*	*I'S/T 1	*	*
*clefF4	*	*clefF4	*	*clefG2	*	*
*k[b-]	*	*k[b-]	*	*k[b-]	*	*
*d:	*	*d:	*	*d:	*	*
*M4/4	*	*M4/4	*	*M4/4	*	*
*met(c)	*	*met(c)	*	*met(c)	*	*
!LO:TX:a:t=Graduale	!	!	!	!LO:TX:t=P:problem=all/middle or left&colon; global	!	!
!LO:TX:a:t=Agitato	!	!	!	!LO:TX:t=P:problem=all\right&colon; global	!	!
8D\	Di-	8D/	Di-	8d/	Di-	.
8C#X/	-es	8C#X/	-es	8c#X/	-es	.
=1	=1	=1	=1	=1	=1	=1
4D\	i-	4D\	i-	4d/	i-	.
4F\	-rae	4F\	-rae	4f/	-rae	.
4r	.	4r	.	4r	.	.
8A\	di-	8A\	di-	8a/	di-	.
8G#X\	-es	8G#X\	-es	8g#X/	-es	.
=2	=2	=2	=2	=2	=2	=2
4A\	il-	4A\	il-	4a/	il-	.
4d\	-la	4d\	-la	4dd\	-la	.
4r	.	4r	.	4r	.	.
8D\	sol-	8A\	sol-	8ff\	sol-	.
8D\	-vet	8A\	-vet	8ff\	-vet	.
=3	=3	=3	=3	=3	=3	=3
4G\	saec-	4B-\	sae-	8ff\L	sae-	.
.	.	.	.	8ee\J	.	.
!	!	!	!	!LO:SIC:v:t=elizja litery u	!	!
4G\	-lum	4B-\	-clum	8ee\L	-clum	.
.	.	.	.	8dd\J	.	.
8G\L	in	8B-\L	in	4cc#X\	in	.
8F\J	.	8A\J	.	.	.	.
8F\L	fa-	8A\L	fa-	4cc#\	fa-	.
8E\J	.	8G\J	.	.	.	.
=4	=4	=4	=4	=4	=4	=4
4D\	-vil-	4F\	-vil-	4dd\	-vil-	.
4D\	-la	4F\	-la	4a/	-la	.
4r	.	4r	.	4r	.	.
8F\	tes-	8A\	tes-	8dd\	tes-	.
8F\	-te	8A\	-te	8dd\	-te	.
=5	=5	=5	=5	=5	=5	=5
2G\	Da-	2B-\	Da-	2cc#X\	Da-	.
4F\	-wid	4A\	-vid	4dd\	-vid	.
8F\	cum	8A\	cum	8a/	cum	.
8F\	si-	8A\	si-	8bn/	si-	.
=6	=6	=6	=6	=6	=6	=6
4F\	-bil-	4A\	-bil-	4cc\	-bil-	.
4E\	-la	4G\	-la	4cc\	-la	.
4D#X\	Quan-	4F#X\	Quan-	4cc\	Quan-	.
4D#\	-tus	4F#\	-tus	8bn/L	-tus	.
.	.	.	.	8a/J	.	.
=7	=7	=7	=7	=7	=7	=7
4E\	tre-	8E\L	tre-	8g#X/L	tre-	.
.	.	8F#X\J	.	8a/J	.	.
4E\	-mor	4G#X\	-mor	4bn\	-mor	.
4r	.	4r	.	4r	.	.
8E\	est	8G#\	est	8b\	est	.
8E\	fu-	8G#\	fu-	8b\	fu-	.
=8	=8	=8	=8	=8	=8	=8
4D#X\	-tu-	4A\	-tu-	4cc\	-tu-	.
4E\	-rus	4G#X\	-rus	4bn\	-rus	.
4r	.	4r	.	4r	.	.
8E\	quan-	8E\	Quan-	8e/	quan-	.
8E\	-do	8E\	-do	8e/	-do	.
=9	=9	=9	=9	=9	=9	=9
4.C/	Ju-	4.E\	Ju-	4.a/	Ju-	.
8C/	-dex	8E\	-dex	8a/	-dex	.
4.C#X/	est	4.E\	est	4.a/	est	.
8C#/	ven-	8E\	ven-	8a/	ven-	.
=10	=10	=10	=10	=10	=10	=10
4D\	-tu-	4F\	-tu-	8a/L	-tu-	.
.	.	.	.	8b-X/J	.	.
4D\	-rus	4F\	-rus	4b-\	-rus	.
4r	.	4r	.	4r	.	.
8E-X\	cun-	8G-X\	cun-	8b-\	cun-	.
8E-\	-cta	8G-\	-cta	8b-\	-cta	.
=11	=11	=11	=11	=11	=11	=11
4.E-X\	stric-	4.G-X\	stric-	4.cc-X\	sti-	.
8E-\	-te	8G-\	-te	8cc-\	-cte	.
4.D#X\	dis-	4.F#X\	dis-	4.bn\	dis-	.
8D#\	-cu-	8F#\	-cur-	8b\	-cus-	.
=12	=12	=12	=12	=12	=12	=12
4E\	-su-	4Gn\	-su-	(8bn\L	-su-	.
.	.	.	.	8cc\J)	.	.
4E\	-rus	4G\	-rus	4cc\	-rus	.
2r	.	2r	.	2r	.	.
=13	=13	=13	=13	=13	=13	=13
2F\	Tu-	2A\	Tu-	2cc\	Tu-	.
2BB-/	-ba	2F\	-ba	2dd\	-ba	.
=14	=14	=14	=14	=14	=14	=14
2C/	mi-	2E\	mi-	2g/	mi-	.
2C/	-rum	2E\	-rum	2g/	-rum	.
=15	=15	=15	=15	=15	=15	=15
8G\L	spar-	2G\	spar-	2b-\	spar-	.
8F\	.	.	.	.	.	.
8E\	.	.	.	.	.	.
8D\J	.	.	.	.	.	.
2C/	-ges	(4A\	-gens	(4cc\	-ges	.
.	.	4G\)	.	4b-\)	.	.
=16	=16	=16	=16	=16	=16	=16
4D\	o-	4F\	o-	4a/	o-	.
4D\	-num	4F\	-num	4a/	-num	.
2r	.	2r	.	2r	.	.
=17	=17	=17	=17	=17	=17	=17
2BB-/	per	2F\	per	2dd\	per	.
2BB-/	se-	2E\	se-	2g/	se-	.
=18	=18	=18	=18	=18	=18	=18
2AA/	-pul-	2F\	-pul-	2cc\	-pul-	.
(4F\	-cra	(4A\	-cra	2cc\	-cro	.
4E\)	.	4G\)	.	.	.	.
=19	=19	=19	=19	=19	=19	=19
2.D\	re-	2.F\	re-	(8bn\L	re-	.
.	.	.	.	8cc\	.	.
.	.	.	.	8dd\	.	.
.	.	.	.	8ee\J	.	.
.	.	.	.	4ff\)	.	.
4D\	-gi-	4F\	-gi-	4b\	-gi-	.
=20	=20	=20	=20	=20	=20	=20
4C/	-o-	4E\	-o-	4cc\	-o-	.
4C/	-num	4E\	-num	4g/	-num	.
4r	.	4r	.	4r	.	.
8C/	co-	8E\	co-	8g/	co-	[[an-
8C/	-get	8E\	-get	8g/	-get	-te]]
=21	=21	=21	=21	=21	=21	=21
2BBn/	om-	2F\	om-	2a-X/	om-	.
4C/	-nes	4E\	-nes	4g/	-nes	.
8E\	an-	8G\	an-	8cc\	an-	.
8E\	-te	8G\	-te	8cc\	-te	.
=22	=22	=22	=22	=22	=22	=22
2F\	tro-	2A-X\	tro-	2bn\	tro-	.
4E\	-num	4G\	-num	4cc\	-num	.
8E\	an-	8G\	an-	8cc\	an-	.
8E\	-te	8G\	-te	8cc\	-te	.
=23	=23	=23	=23	=23	=23	=23
1D	tro-	(2A\	tro-	(2ff\	tro-	.
.	.	2F\)	.	4a/	.	.
.	.	.	.	4bn\)	.	.
=24	=24	=24	=24	=24	=24	=24
4C/	-num	4E\	-num	4cc\	-num	.
4r	.	4r	.	4r	.	.
2r	.	2r	.	2r	.	.
==	==	==	==	==	==	==
*-	*-	*-	*-	*-	*-	*-
!!!system-decoration: [(s1,s2,s3)]
!!!ENC: Krzysztof Stępień
!!!END: 2021-03-05
